public/img/logo.svg

<svg width="180" height="45" viewBox="0 0 180 45" fill="none" xmlns="http://www.w3.org/2000/svg">
<path d="M6.76004 36.6031C6.01864 36.6047 5.30683 36.3091 4.78038 35.781L0.812363 31.7716C0.547409 31.5014 0.338916 31.1799 0.199293 30.8265C0.0596704 30.473 -0.00822888 30.0947 -0.000363614 29.7142V0.61322H4.62609V30.8462C4.62891 30.9982 4.66145 31.1482 4.72185 31.2874C4.78224 31.4267 4.86929 31.5524 4.97798 31.6575C5.08667 31.7625 5.21484 31.8447 5.3551 31.8994C5.49536 31.9541 5.64494 31.9801 5.7952 31.9761H10.8258V36.6031H6.76004Z" fill="black"/>
<path d="M86.8809 32.7521H103.205L96.3532 25.8236L98.9761 23.1704L105.193 29.4549C105.46 29.729 105.612 30.0968 105.617 30.4814V35.2733C105.614 35.4451 105.575 35.6142 105.501 35.7693C105.428 35.9244 105.323 36.0618 105.193 36.1723C104.91 36.4496 104.529 36.6027 104.135 36.5988H86.8809V32.7521ZM105.828 15V18.8511H89.4603L96.3532 25.8236L93.7325 28.4745L87.5154 22.1879C87.2447 21.9155 87.0889 21.5475 87.0808 21.1613V16.3255C87.0855 16.1532 87.1267 15.984 87.2017 15.8292C87.2767 15.6745 87.3837 15.5379 87.5154 15.4286C87.7962 15.1467 88.1759 14.9887 88.5715 14.989L105.828 15Z" fill="black"/>
<path d="M113.67 17.8642C114.074 18.273 114.322 18.5236 114.924 18.5236H123.933V14.8395H114.478C114.359 14.843 114.24 14.8225 114.128 14.7791C114.016 14.7357 113.914 14.6702 113.828 14.5866C113.741 14.503 113.672 14.4028 113.624 14.2919C113.576 14.181 113.55 14.0615 113.548 13.9405V0H109.872V13.0415C109.866 13.3444 109.92 13.6455 110.032 13.9266C110.144 14.2076 110.311 14.4628 110.523 14.6769L113.67 17.8642Z" fill="black"/>
<path d="M114.34 18.8203V36.4493H110.037V18.8203" fill="black"/>
<path d="M134.808 14.2504C138.078 14.2504 140.775 15.3238 142.898 17.4707C145.05 19.5897 146.125 22.2882 146.125 25.5664C146.125 28.8445 145.05 31.5438 142.898 33.6643C140.776 35.8111 138.079 36.8845 134.808 36.8845C131.537 36.8845 128.84 35.8111 126.718 33.6643C124.566 31.5482 123.491 28.8489 123.491 25.5664C123.491 22.2838 124.566 19.5853 126.718 17.4707C128.842 15.3224 131.538 14.249 134.808 14.2504ZM134.808 32.6619C136.846 32.6619 138.525 31.9951 139.843 30.6616C141.161 29.3281 141.821 27.6297 141.823 25.5664C141.823 23.506 141.163 21.809 139.843 20.4755C138.523 19.142 136.845 18.4716 134.808 18.4642C132.773 18.4642 131.094 19.1325 129.773 20.4689C128.452 21.8054 127.793 23.5023 127.796 25.5598C127.796 27.6216 128.455 29.32 129.773 30.655C131.091 31.99 132.77 32.659 134.808 32.6619Z" fill="black"/>
<path d="M79.151 13.6284V39.5069C79.1485 39.6522 79.1175 39.7955 79.0599 39.9286C79.0022 40.0617 78.919 40.1819 78.8152 40.2823C78.7113 40.3826 78.5888 40.4612 78.4547 40.5133C78.3206 40.5655 78.1777 40.5902 78.0341 40.5862H62.1294V45H77.1127C77.8214 45.0019 78.5019 44.7197 79.0054 44.2153L82.7931 40.3883C83.0467 40.1314 83.2464 39.8253 83.3801 39.4884C83.5138 39.1514 83.5787 38.7906 83.571 38.4276L83.4906 13.6284" fill="black"/>
<path d="M71.4477 14.2504C74.7174 14.2504 77.4142 15.3238 79.538 17.4707C81.6893 19.5897 82.765 22.2882 82.765 25.5664C82.765 28.8445 81.6879 31.5438 79.5336 33.6643C77.4113 35.8111 74.7145 36.8845 71.4433 36.8845C68.1721 36.8845 65.4753 35.8111 63.353 33.6643C61.2016 31.5482 60.126 28.8489 60.126 25.5664C60.126 22.2838 61.2016 19.5853 63.353 17.4707C65.4782 15.3224 68.1765 14.249 71.4477 14.2504ZM71.4477 32.6619C73.4845 32.6619 75.1629 31.9951 76.4826 30.6616C77.8024 29.3281 78.4623 27.6297 78.4623 25.5664C78.4623 23.506 77.8024 21.809 76.4826 20.4755C75.1629 19.142 73.4845 18.4716 71.4477 18.4642C69.4093 18.4642 67.731 19.1325 66.4127 20.4689C65.0943 21.8054 64.4344 23.5023 64.433 25.5598C64.433 27.6216 65.0929 29.32 66.4127 30.655C67.7324 31.99 69.4108 32.659 71.4477 32.6619Z" fill="black"/>
<path d="M34.6015 15.422V36.524H30.4227V33.7412C28.4191 35.8792 25.9151 36.9483 22.9104 36.9483C19.9333 36.9483 17.4575 35.9071 15.4829 33.8247C13.4793 31.7145 12.4775 29.098 12.4775 25.9752C12.4775 22.8524 13.4815 20.2352 15.4894 18.1235C17.4654 16.0426 19.9413 15.0015 22.9169 15C25.923 15 28.4271 16.0698 30.4292 18.2093V15.422H34.6015ZM23.5428 32.9389C25.571 32.9389 27.2261 32.2919 28.5082 30.9979C29.7904 29.704 30.4285 28.0297 30.4227 25.9752C30.4227 23.9236 29.7824 22.2494 28.5017 20.9525C27.2211 19.6556 25.5659 19.0079 23.5363 19.0094C21.5081 19.0094 19.8529 19.6571 18.5708 20.9525C17.2887 22.2479 16.6491 23.9222 16.652 25.9752C16.652 28.0268 17.2916 29.7011 18.5708 30.9979C19.85 32.2948 21.5074 32.9418 23.5428 32.9389Z" fill="black"/>
<path d="M48.7804 15C51.4881 15 53.6872 15.913 55.3779 17.7389C57.0424 19.5413 57.8747 21.8347 57.8747 24.619V36.8186H53.6438V25.0586C53.6438 23.2034 53.1085 21.749 52.0379 20.6953C50.9948 19.6124 49.5562 19.0702 47.7222 19.0687C45.8881 19.0673 44.4503 19.6095 43.4086 20.6953C42.338 21.7504 41.8027 23.2049 41.8027 25.0586V36.8186H37.5718V15.4286H41.8027V18.1653C43.5224 16.0551 45.8483 15 48.7804 15Z" fill="black"/>
<path d="M160.674 15C163.38 15 165.579 15.913 167.271 17.7389C168.933 19.5413 169.765 21.8347 169.766 24.619V36.8186H165.537V25.0586C165.537 23.2034 165.001 21.749 163.929 20.6953C162.886 19.6124 161.448 19.0702 159.616 19.0687C157.783 19.0673 156.345 19.6095 155.302 20.6953C154.232 21.7504 153.696 23.2049 153.694 25.0586V36.8186H149.465V15.4286H153.694V18.1653C155.415 16.0551 157.742 15 160.674 15Z" fill="black"/>
<path d="M176.963 30.7891C177.497 30.7891 178.022 30.9325 178.484 31.2046C178.949 31.468 179.333 31.8568 179.592 32.3278C179.857 32.7966 179.997 33.3267 179.999 33.8665C179.998 34.407 179.856 34.9377 179.588 35.4052C179.325 35.8761 178.938 36.2647 178.471 36.5284C178.007 36.7944 177.483 36.9338 176.95 36.9329C176.411 36.9342 175.882 36.7909 175.416 36.5174C174.949 36.2531 174.566 35.8607 174.31 35.3854C174.042 34.9148 173.903 34.3811 173.905 33.8383C173.907 33.2956 174.051 32.763 174.323 32.2948C174.587 31.8204 174.979 31.4316 175.453 31.1738C175.916 30.9184 176.435 30.7861 176.963 30.7891ZM176.963 31.3013C176.516 31.3007 176.077 31.4198 175.69 31.6464C175.301 31.8662 174.982 32.1913 174.766 32.585C174.541 32.9763 174.422 33.4205 174.42 33.8731C174.419 34.326 174.539 34.7709 174.766 35.1612C174.987 35.5536 175.309 35.878 175.698 36.0998C176.084 36.3215 176.519 36.4389 176.963 36.4405C177.413 36.4416 177.855 36.3209 178.243 36.091C178.631 35.868 178.951 35.5419 179.169 35.148C179.384 34.7581 179.497 34.3195 179.499 33.8731C179.5 33.4153 179.381 32.9654 179.153 32.5696C178.932 32.1737 178.604 31.8491 178.208 31.6332C177.827 31.419 177.399 31.3049 176.963 31.3013ZM175.627 35.5744V32.2597H176.752C176.981 32.2526 177.211 32.2688 177.437 32.308C177.663 32.3505 177.864 32.4806 177.997 32.6707C178.098 32.8122 178.153 32.982 178.154 33.1565C178.157 33.28 178.135 33.4029 178.087 33.5167C178.039 33.6305 177.968 33.7325 177.878 33.8159C177.698 33.9807 177.468 34.0784 177.226 34.0929C177.329 34.1347 177.423 34.1951 177.504 34.2709C177.69 34.4717 177.852 34.6929 177.989 34.9304L178.389 35.5898H177.737L177.445 35.0667C177.308 34.7756 177.118 34.5126 176.887 34.2907C176.759 34.2027 176.606 34.1609 176.452 34.172H176.144V35.5832L175.627 35.5744ZM176.157 33.7104H176.796C177.328 33.7104 177.595 33.5412 177.595 33.2027C177.6 33.1054 177.572 33.0095 177.516 32.9299C177.461 32.8503 177.381 32.7917 177.289 32.763C177.116 32.7134 176.936 32.6933 176.757 32.7037H176.157V33.7104Z" fill="black"/>
</svg>

<svg width="180" height="45" fill="none" xmlns="http://www.w3.org/2000/svg"><path d="M6.76 36.603a2.787 2.787 0 01-1.98-.822l-3.968-4.01A2.84 2.84 0 010 29.715V.614h4.626v30.232a1.163 1.163 0 00.352.811 1.138 1.138 0 00.817.32h5.03v4.626H6.76zm80.12-3.851h16.325l-6.852-6.928 2.623-2.654 6.217 6.285a1.5 1.5 0 01.424 1.026v4.792a1.2 1.2 0 01-.424.9c-.283.277-.664.43-1.058.426H86.881v-3.847zM105.829 15v3.851H89.46l6.893 6.973-2.62 2.65-6.218-6.286a1.501 1.501 0 01-.434-1.027v-4.835a1.214 1.214 0 01.434-.897 1.49 1.49 0 011.056-.44l17.257.011zm7.841 2.864c.404.409.652.66 1.254.66h9.009v-3.685h-9.455a.896.896 0 01-.65-.252.908.908 0 01-.28-.646V0h-3.676v13.041a2.27 2.27 0 00.651 1.636l3.147 3.187zm.67.956v17.63h-4.303V18.82m24.771-4.57c3.27 0 5.967 1.074 8.09 3.22 2.152 2.12 3.227 4.818 3.227 8.096 0 3.279-1.075 5.978-3.227 8.098-2.122 2.147-4.819 3.22-8.09 3.22s-5.968-1.073-8.09-3.22c-2.152-2.116-3.227-4.815-3.227-8.098 0-3.282 1.075-5.98 3.227-8.095 2.124-2.149 4.82-3.222 8.09-3.22zm0 18.412c2.038 0 3.717-.667 5.035-2 1.318-1.334 1.978-3.032 1.98-5.096 0-2.06-.66-3.757-1.98-5.09-1.32-1.334-2.998-2.004-5.035-2.012-2.035 0-3.714.669-5.035 2.005-1.321 1.336-1.98 3.033-1.977 5.09 0 2.063.659 3.761 1.977 5.096s2.997 2.004 5.035 2.007zM79.151 13.628v25.879a1.11 1.11 0 01-.336.775 1.085 1.085 0 01-.78.304H62.128V45h14.984a2.66 2.66 0 001.892-.785l3.788-3.827a2.697 2.697 0 00.778-1.96l-.08-24.8" fill="#000"/><path d="M71.448 14.25c3.27 0 5.966 1.074 8.09 3.22 2.151 2.12 3.227 4.818 3.227 8.096 0 3.279-1.077 5.978-3.231 8.098-2.123 2.147-4.82 3.22-8.09 3.22-3.272 0-5.969-1.073-8.091-3.22-2.151-2.116-3.227-4.815-3.227-8.098 0-3.282 1.076-5.98 3.227-8.095 2.125-2.149 4.824-3.222 8.095-3.22zm0 18.412c2.037 0 3.715-.667 5.035-2 1.32-1.334 1.98-3.032 1.98-5.096 0-2.06-.66-3.757-1.98-5.09-1.32-1.334-2.999-2.004-5.035-2.012-2.039 0-3.717.669-5.035 2.005-1.319 1.336-1.979 3.033-1.98 5.09 0 2.063.66 3.761 1.98 5.096 1.32 1.335 2.998 2.004 5.035 2.007zm-36.846-17.24v21.102h-4.18v-2.783c-2.003 2.138-4.507 3.207-7.512 3.207-2.977 0-5.453-1.04-7.427-3.123-2.004-2.11-3.006-4.727-3.006-7.85 0-3.123 1.005-5.74 3.012-7.852 1.976-2.08 4.452-3.122 7.428-3.123 3.006 0 5.51 1.07 7.512 3.21v-2.788h4.173zm-11.06 17.517c2.029 0 3.684-.647 4.966-1.941s1.92-2.968 1.915-5.023c0-2.051-.64-3.726-1.921-5.023-1.28-1.296-2.936-1.944-4.966-1.943-2.028 0-3.683.648-4.965 1.944-1.282 1.295-1.922 2.97-1.919 5.022 0 2.052.64 3.726 1.919 5.023 1.279 1.297 2.936 1.944 4.972 1.94zM48.78 15c2.708 0 4.907.913 6.598 2.739 1.664 1.802 2.497 4.096 2.497 6.88v12.2h-4.231v-11.76c0-1.856-.535-3.31-1.606-4.364-1.043-1.083-2.482-1.625-4.316-1.626-1.834-.002-3.272.54-4.313 1.626-1.071 1.055-1.606 2.51-1.606 4.364v11.76h-4.231v-21.39h4.23v2.736C43.523 16.055 45.849 15 48.78 15zm111.894 0c2.706 0 4.905.913 6.597 2.739 1.662 1.802 2.494 4.096 2.495 6.88v12.2h-4.229v-11.76c0-1.856-.536-3.31-1.608-4.364-1.043-1.083-2.481-1.625-4.313-1.626-1.833-.002-3.271.54-4.314 1.626-1.07 1.055-1.606 2.51-1.608 4.364v11.76h-4.229v-21.39h4.229v2.736c1.721-2.11 4.048-3.165 6.98-3.165zm16.289 15.79c.534 0 1.059.143 1.521.415.465.263.849.652 1.108 1.123.265.469.405.999.407 1.538a3.107 3.107 0 01-.411 1.54 2.93 2.93 0 01-1.117 1.122 3.047 3.047 0 01-3.055-.01 2.854 2.854 0 01-1.106-1.133 3.103 3.103 0 01.013-3.09 2.856 2.856 0 011.13-1.121 3.088 3.088 0 011.51-.385zm0 .511c-.447 0-.886.119-1.273.345-.389.22-.708.545-.924.939a2.607 2.607 0 00-.346 1.288 2.55 2.55 0 00.346 1.288c.221.393.543.717.932.939.386.221.821.339 1.265.34.45.002.892-.12 1.28-.349a2.46 2.46 0 00.926-.943c.215-.39.328-.829.33-1.275a2.6 2.6 0 00-.346-1.303 2.397 2.397 0 00-.945-.937 2.583 2.583 0 00-1.245-.332zm-1.336 4.273V32.26h1.125c.229-.007.459.009.685.048a.883.883 0 01.441 1.508 1.06 1.06 0 01-.652.277.905.905 0 01.278.178c.186.2.348.422.485.66l.4.659h-.652l-.292-.523a2.63 2.63 0 00-.558-.776.68.68 0 00-.435-.119h-.308v1.411l-.517-.009zm.53-1.864h.639c.532 0 .799-.169.799-.507a.435.435 0 00-.306-.44 1.595 1.595 0 00-.532-.06h-.6v1.007z" fill="#000"/></svg>
